X: 132
M: C
L: 1/8
K: Em
e2(ef) g2(fe) | d2B2 B2(AB) | d^cde faef | d2A2 A2(Bd) |
eBef   g2(fe) | dBGB d2(cB) | (AG).F.E (DE).F.A | G2E2 E2 :|
(GA) |\
e2(ef) g2(fe) | dBGA BdcB   | AGFE DEFA | G2E2 E2 |]


